X:1     %Music
T:Blow the Man Down
B:Singing Together, Spring 1969, BBC Publications
F:http://www.folkinfo.org/songs
M:6/8     %Meter
L:1/8     %
K:F
(FA) |c3/2d/c AFA |c3/2d/c A
w:O_ blow the man down bul-lies, blow the man down, 
FA |c3 d3 | B3/2A/B G2
w:And a-way-hay,  blow the man down,
 A |B3/2A/B GEG |BAG d2 
w: O blow the man down bul-lies, blow the man down, 
f |c3/2c/c c2 B |A3/2G/A F2 z |]
w:O give us a chance to blow the man down. 